Newaita/actions/22/trash-empty.svg

<svg height="22" viewBox="0 0 22 22" width="22" xmlns="http://www.w3.org/2000/svg"><g fill="#424242"><path d="m13.644531 7.449219c.25 0 .453125.203125.453125.453125v8.640625c0 .253906-.203125.457031-.453125.457031s-.457031-.203125-.457031-.457031v-8.640625c0-.25.207031-.453125.457031-.453125zm0 0"/><path d="m2.730469 3.808594h15.917969c.5 0 .90625.410156.90625.910156 0 .503906-.40625.910156-.90625.910156h-15.917969c-.503907 0-.910157-.40625-.910157-.910156 0-.5.40625-.910156.910157-.910156zm0 0"/><path d="m10.460938 1.992188h.910156c.5 0 .910156.40625.910156.910156v.90625c0 .503906-.410156.910156-.910156.910156h-.910156c-.503907 0-.910157-.40625-.910157-.910156v-.90625c0-.503906.40625-.910156.910157-.910156zm0 0"/><path d="m10.914062 7.449219c.253907 0 .457032.203125.457032.453125v8.640625c0 .253906-.203125.457031-.457032.457031-.25 0-.453124-.203125-.453124-.457031v-8.640625c0-.25.203124-.453125.453124-.453125zm0 0"/><path d="m3.636719 6.539062v11.824219c0 1.007813.8125 1.820313 1.820312 1.820313h10.914063c1.007812 0 1.820312-.8125 1.820312-1.820313v-11.824219h-1.820312v10.914063c0 .503906-.402344.910156-.90625.910156h-9.097656c-.503907 0-.910157-.40625-.910157-.910156v-10.914063zm0 0"/><path d="m8.1875 7.449219c.25 0 .453125.203125.453125.453125v8.640625c0 .253906-.203125.457031-.453125.457031-.253906 0-.457031-.203125-.457031-.457031v-8.640625c0-.25.203125-.453125.457031-.453125zm0 0"/></g></svg>

<svg xmlns="http://www.w3.org/2000/svg" xmlns:xlink="http://www.w3.org/1999/xlink" width="22px" height="22px" viewBox="0 0 22 22" version="1.1">
<g id="surface1">
     <defs>
  <style id="current-color-scheme" type="text/css">
   .ColorScheme-Text { color:#424242; } .ColorScheme-Highlight { color:#eeeeee; }
  </style>
 </defs>
<path style="fill:currentColor" class="ColorScheme-Text" d="M 13.644531 7.449219 C 13.894531 7.449219 14.097656 7.652344 14.097656 7.902344 L 14.097656 16.542969 C 14.097656 16.796875 13.894531 17 13.644531 17 C 13.394531 17 13.1875 16.796875 13.1875 16.542969 L 13.1875 7.902344 C 13.1875 7.652344 13.394531 7.449219 13.644531 7.449219 Z M 13.644531 7.449219 "/>
     <defs>
  <style id="current-color-scheme" type="text/css">
   .ColorScheme-Text { color:#424242; } .ColorScheme-Highlight { color:#eeeeee; }
  </style>
 </defs>
<path style="fill:currentColor" class="ColorScheme-Text" d="M 2.730469 3.808594 L 18.648438 3.808594 C 19.148438 3.808594 19.554688 4.21875 19.554688 4.71875 C 19.554688 5.222656 19.148438 5.628906 18.648438 5.628906 L 2.730469 5.628906 C 2.226562 5.628906 1.820312 5.222656 1.820312 4.71875 C 1.820312 4.21875 2.226562 3.808594 2.730469 3.808594 Z M 2.730469 3.808594 "/>
     <defs>
  <style id="current-color-scheme" type="text/css">
   .ColorScheme-Text { color:#424242; } .ColorScheme-Highlight { color:#eeeeee; }
  </style>
 </defs>
<path style="fill:currentColor" class="ColorScheme-Text" d="M 10.460938 1.992188 L 11.371094 1.992188 C 11.871094 1.992188 12.28125 2.398438 12.28125 2.902344 L 12.28125 3.808594 C 12.28125 4.3125 11.871094 4.71875 11.371094 4.71875 L 10.460938 4.71875 C 9.957031 4.71875 9.550781 4.3125 9.550781 3.808594 L 9.550781 2.902344 C 9.550781 2.398438 9.957031 1.992188 10.460938 1.992188 Z M 10.460938 1.992188 "/>
     <defs>
  <style id="current-color-scheme" type="text/css">
   .ColorScheme-Text { color:#424242; } .ColorScheme-Highlight { color:#eeeeee; }
  </style>
 </defs>
<path style="fill:currentColor" class="ColorScheme-Text" d="M 10.914062 7.449219 C 11.167969 7.449219 11.371094 7.652344 11.371094 7.902344 L 11.371094 16.542969 C 11.371094 16.796875 11.167969 17 10.914062 17 C 10.664062 17 10.460938 16.796875 10.460938 16.542969 L 10.460938 7.902344 C 10.460938 7.652344 10.664062 7.449219 10.914062 7.449219 Z M 10.914062 7.449219 "/>
     <defs>
  <style id="current-color-scheme" type="text/css">
   .ColorScheme-Text { color:#424242; } .ColorScheme-Highlight { color:#eeeeee; }
  </style>
 </defs>
<path style="fill:currentColor" class="ColorScheme-Text" d="M 3.636719 6.539062 L 3.636719 18.363281 C 3.636719 19.371094 4.449219 20.183594 5.457031 20.183594 L 16.371094 20.183594 C 17.378906 20.183594 18.191406 19.371094 18.191406 18.363281 L 18.191406 6.539062 L 16.371094 6.539062 L 16.371094 17.453125 C 16.371094 17.957031 15.96875 18.363281 15.464844 18.363281 L 6.367188 18.363281 C 5.863281 18.363281 5.457031 17.957031 5.457031 17.453125 L 5.457031 6.539062 Z M 3.636719 6.539062 "/>
     <defs>
  <style id="current-color-scheme" type="text/css">
   .ColorScheme-Text { color:#424242; } .ColorScheme-Highlight { color:#eeeeee; }
  </style>
 </defs>
<path style="fill:currentColor" class="ColorScheme-Text" d="M 8.1875 7.449219 C 8.4375 7.449219 8.640625 7.652344 8.640625 7.902344 L 8.640625 16.542969 C 8.640625 16.796875 8.4375 17 8.1875 17 C 7.933594 17 7.730469 16.796875 7.730469 16.542969 L 7.730469 7.902344 C 7.730469 7.652344 7.933594 7.449219 8.1875 7.449219 Z M 8.1875 7.449219 "/>
</g>
</svg>
